alpha-w-circle.svg

<svg fill="currentColor" viewBox="0 0 24 24"><path d="M9 17h6a2 2 0 0 0 2-2V7h-2v8h-2V8h-2v7H9V7H7v8a2 2 0 0 0 2 2m3-15a10 10 0 0 1 10 10 10 10 0 0 1-10 10A10 10 0 0 1 2 12 10 10 0 0 1 12 2"/></svg>

<svg  viewBox="0 0 24 24" fill="currentColor"><path  d="M9,17H15A2,2 0 0,0 17,15V7H15V15H13V8H11V15H9V7H7V15A2,2 0 0,0 9,17M12,2A10,10 0 0,1 22,12A10,10 0 0,1 12,22A10,10 0 0,1 2,12A10,10 0 0,1 12,2Z"/></svg>
